!!!COM: Bach, Johann Sebastian
!!!CDT: 1685/3//-1750/7/28/
!!!OTL@@DE: Nun lob', mein' Seel', den Herren
!!!AGN: 4-Part Chorale
!!!SCT: BH 268
!!!SCT: BWV 389
**harm	**root	**kern	**kern	**kern	**kern
!	!	!bass	!tenor	!alto	!soprno
*	*Iorgan	*Iorgan	*Iorgan	*Iorgan	*Iorgan
*M4/4	*M4/4	*M4/4	*M4/4	*M4/4	*M4/4
*met(c)	*met(c)	*met(c)	*met(c)	*met(c)	*met(c)
*MM60	*MM60	*MM60	*MM60	*MM60	*MM60
*k[]	*k[]	*k[]	*k[]	*k[]	*k[]
*C:	*C:	*C:	*C:	*C:	*C:
*>[A,A,B]	*>[A,A,B]	*>[A,A,B]	*>[A,A,B]	*>[A,A,B]	*>[A,A,B]
*>A	*>A	*>A	*>A	*>A	*>A
I	4CC	8c	4e	4g	4cc
.	.	8B	.	.	.
=1	=1	=1	=1	=1	=1
vi	4AA	4A	4e	4a	4cc
iii	4EE	4E	8e	4g	4b
.	.	.	8d	.	.
IV	4FF	4F	4c	8g	4a
.	.	.	.	8f	.
I	4CC	8C	4c	8e	4g
.	.	8D	.	8f	.
=2	=2	=2	=2	=2	=2
Ib	4CC	4E	4.c	4g	4cc
ii7b	8DD	8F	.	8a	4dd
V	8GG	8G	8B	8g	.
I;	4CC;	4C;	4c;	4g;	4ee;
I	4CC	4C	8c	4g	4ee
.	.	.	8d	.	.
=3	=3	=3	=3	=3	=3
I	8CC	4c	8e	8g	8ee
ii7d	8DD	.	8f	8a	8dd
Vb/vi	4EE	4G#	8e	4b	4ee
.	.	.	8d	.	.
vi	4AA	8A	4.c	4.a	4ee
.	.	8Gn	.	.	.
ii7b	8DD	8F	.	.	4dd
V	8GG	8G	8B	8g	.
=4	=4	=4	=4	=4	=4
Ib	8CC	8E	4c	8g	8cc
ii7b	8DD	8F	.	8a	8dd
V	4GG	4G	4B	8g	4ddT
.	.	.	.	8f	.
I;	4CC;	4C;	4G;	4e;	4cc;
=:|!	=:|!	=:|!	=:|!	=:|!	=:|!
*>B	*>B	*>B	*>B	*>B	*>B
I	4CC	4C	4G	4e	4cc
=5	=5	=5	=5	=5	=5
IV	4FF	4F	4A	4f	8cc
.	.	.	.	.	8dd
Ib	4CC	8E	8G	4cc	4ee
.	.	8F	8A	.	.
V	4GG	4G	4B	8g	4dd
.	.	.	.	8f	.
Vb/vi	4EE	4G#	4B	4e	4ee
=6	=6	=6	=6	=6	=6
vi	4AA	4A	8B	2e	4cc
.	.	.	4A	.	.
V/vi	4EE	4E	.	.	4b
.	.	.	8G#	.	.
vi;	4AA;	4AA;	4c;	4e;	4a;
vi	4AA	8A	8c	4e	4a
.	.	8Gn	8B	.	.
!!linebreak: 3
=7	=7	=7	=7	=7	=7
Vb/V	4DD	4F#	4A	4d	8dd
.	.	.	.	.	8cc
V	4GG	8G	4G	4d	4b
.	.	8F#	.	.	.
Ib	8CC	8E	4G	8g	8cc
I7	8CC	8C	.	8e	8b
V/V	4DD	4D	8d	4f#	4a
.	.	.	8c	.	.
=8	=8	=8	=8	=8	=8
V;	4GG;	4GG;	4B;	4d;	4g;
V	4GG	8G	8B	4d	4g
.	.	8F	8A	.	.
Ib	4CC	4E	4G	8g	4cc
.	.	.	.	8f	.
vi	4AA	8A	4c	4e	4cc
.	.	8G	.	.	.
=9	=9	=9	=9	=9	=9
ii7b	4DD	8F	4c	8a	4dd
.	.	8D	.	8f	.
V	4GG	4G	4B	4g	4dd
I	4CC	4.C	4c	8g	8ee
.	.	.	.	8f	8dd
V7/IV	4CC	.	4B-	4g	4ee
.	.	16D	.	.	.
.	.	16E	.	.	.
=10	=10	=10	=10	=10	=10
IV;	4FF;	4F;	4A;	4f;	4cc;
I	4CC	4E	4c	4g	4cc
ii	4DD	4D	8d	8f	4ff
.	.	.	8e	8g	.
ii	4DD	4d	4f	4a	4ff
=11	=11	=11	=11	=11	=11
iv/ii	4GG	8G	4g	4b-	8ee
.	.	8B-	.	.	8dd
V/ii	4AA	4A	4c#	4e	4ee
ii;	4DD;	4D;	4A;	4f;	4dd;
V	4GG	4G	4Bn	4g	4dd
=12	=12	=12	=12	=12	=12
I	4CC	8c	4c	4g	4ee
.	.	8B	.	.	.
vi	4AA	8A	4c	4a	4ee
.	.	8G	.	.	.
iib	4DD	8F	4d	4a	4ff
.	.	8E	.	.	.
IVb/IV	4BB-	4D	4d	4b-	4ff
!!linebreak: 3
=13	=13	=13	=13	=13	=13
V7/IV	4CC	4C	8e	4b-	8gg
.	.	.	8d	.	16ff
.	.	.	.	.	16ee
vi7/IV	8DD	8D	8c	8a	8ff
viio/IV	8EE	8E	8B-	8g	8gg
IV;	4FF;	4F;	4A;	4f;	4cc;
I	4CC	4c	8c	4g	4ee
.	.	.	8Bn	.	.
=14	=14	=14	=14	=14	=14
Vb/V	4DD	4F#	4A	4a	8dd
.	.	.	.	.	8cc
V	4GG	4G	4d	4g	4b
Ib	8CC	8E	4G	8g	8cc
I7	8CC	8C	.	8e	8b
V/V	4DD	4D	8d	4f#	4a
.	.	.	8c	.	.
=15	=15	=15	=15	=15	=15
V;	4GG;	4GG;	4B;	4d;	4g;
V	4GG	4GG	4B	4d	4g
vi	4AA	4AA	8E	4a	4cc
.	.	.	8F#	.	.
Vb	4GG	8BB	4G	8d	4b
.	.	8C	.	8e	.
=16	=16	=16	=16	=16	=16
ii	4DD	4D	4d	4fn	4a
Ib	4CC	4E	8d	4g	4g
.	.	.	8c	.	.
viio7c	4BB	4F	8c	4.a	4dd
.	.	.	8B	.	.
viio7/V	4FF#	4F#	4c	.	4ee
.	.	.	.	16b	.
.	.	.	.	16cc	.
=17	=17	=17	=17	=17	=17
V;	4GG;	4G;	4B;	4g;	4dd;
Vb/vi	4EE	4G#	8e	4b	4ee
.	.	.	8d	.	.
vi	4AA	8A	8c	4a	4ff
.	.	8B	8d	.	.
I	8CC	4c	8e	8g	4ee
IV7c	8FF	.	8f	8a	.
=18	=18	=18	=18	=18	=18
V7d	8GG	8F	8g	4b	4dd
V7	8GG	8Gn	8f	.	.
vi	4AA	4A	8e	2cc	8cc
.	.	.	8f	.	8dd
Ic	4CC	8G	4.g	.	4ee
.	.	8F	.	.	.
V	4GG	4G	.	4b	4dd
.	.	.	8f	.	.
=19	=19	=19	=19	=19	=19
I;	2.CC;	2.C;	2.e;	2.g;	2.cc;
==	==	==	==	==	==
*-	*-	*-	*-	*-	*-
!!chor2scor: -l 3 -s 0.6 -o %b.pmx
!!!YEC: Copyright 1994, David Huron
!!!YEC: Changes/Additions 2001 by Craig Stuart Sapp
!!!YEN: United States of America
!!!SMA: 371 Bach Chorales, edited by Ludwig Erk, C.F. Peters
!!!PDT: 1850, 1865
!!!ONB: Harmony and Root analysis done manually
